branches/nugui/src/gui/icons/select_invert.svg

<?xml version="1.0" encoding="UTF-8" standalone="no"?>
<!-- Created with Inkscape (http://www.inkscape.org/) -->

<svg
   xmlns:dc="http://purl.org/dc/elements/1.1/"
   xmlns:cc="http://creativecommons.org/ns#"
   xmlns:rdf="http://www.w3.org/1999/02/22-rdf-syntax-ns#"
   xmlns:svg="http://www.w3.org/2000/svg"
   xmlns="http://www.w3.org/2000/svg"
   xmlns:xlink="http://www.w3.org/1999/xlink"
   xmlns:inkscape="http://www.inkscape.org/namespaces/inkscape"
   version="1.0"
   width="100"
   height="100"
   id="svg2">
  <metadata
     id="metadata2566">
    <rdf:RDF>
      <cc:Work
         rdf:about="">
        <dc:format>image/svg+xml</dc:format>
        <dc:type
           rdf:resource="http://purl.org/dc/dcmitype/StillImage" />
      </cc:Work>
    </rdf:RDF>
  </metadata>
  <defs
     id="defs4">
    <linearGradient
       x1="25.398125"
       y1="63.345894"
       x2="90.625114"
       y2="63.345894"
       id="linearGradient3433"
       xlink:href="#linearGradient3384-2"
       gradientUnits="userSpaceOnUse"
       gradientTransform="matrix(0.2377304,0.2377304,-0.2377304,0.2377304,130.10411,3.861581)" />
    <linearGradient
       id="linearGradient3384-2">
      <stop
         id="stop3386-3"
         style="stop-color:#0000ff;stop-opacity:1"
         offset="0" />
      <stop
         id="stop3388-7"
         style="stop-color:#000000;stop-opacity:1"
         offset="1" />
    </linearGradient>
    <radialGradient
       cx="58.01162"
       cy="63.345894"
       r="33.113495"
       fx="58.01162"
       fy="63.345894"
       id="radialGradient3435"
       xlink:href="#linearGradient3252-5"
       gradientUnits="userSpaceOnUse"
       gradientTransform="matrix(0.1887019,0,0,0.1887019,113.81659,16.602022)" />
    <linearGradient
       id="linearGradient3252-5">
      <stop
         id="stop3254-9"
         style="stop-color:#ffffff;stop-opacity:1"
         offset="0" />
      <stop
         id="stop3256-2"
         style="stop-color:#7f7fff;stop-opacity:0"
         offset="1" />
    </linearGradient>
    <linearGradient
       x1="25.398125"
       y1="63.345894"
       x2="90.625114"
       y2="63.345894"
       id="linearGradient3909"
       xlink:href="#linearGradient3384-2"
       gradientUnits="userSpaceOnUse"
       gradientTransform="matrix(0.2377304,0.2377304,-0.2377304,0.2377304,130.10411,3.861581)" />
    <radialGradient
       cx="58.01162"
       cy="63.345894"
       r="33.113495"
       fx="58.01162"
       fy="63.345894"
       id="radialGradient3911"
       xlink:href="#linearGradient3252-5"
       gradientUnits="userSpaceOnUse"
       gradientTransform="matrix(0.1887019,0,0,0.1887019,113.81659,16.602022)" />
    <linearGradient
       id="linearGradient3197">
      <stop
         id="stop3199"
         style="stop-color:#e4e1e1;stop-opacity:1"
         offset="0" />
      <stop
         id="stop3201"
         style="stop-color:#e4af00;stop-opacity:1"
         offset="1" />
    </linearGradient>
    <linearGradient
       id="linearGradient3189">
      <stop
         id="stop3191"
         style="stop-color:#000000;stop-opacity:1"
         offset="0" />
      <stop
         id="stop3193"
         style="stop-color:#000000;stop-opacity:0"
         offset="1" />
    </linearGradient>
    <radialGradient
       cx="50.059151"
       cy="48.853989"
       r="42.138134"
       fx="50.059151"
       fy="48.853989"
       id="radialGradient3973"
       xlink:href="#linearGradient3197"
       gradientUnits="userSpaceOnUse"
       gradientTransform="matrix(1.0030842,0,0,1.1242975,-181.80028,-43.032542)" />
    <radialGradient
       cx="50.059151"
       cy="48.853989"
       r="42.138134"
       fx="50.059151"
       fy="48.853989"
       id="radialGradient3975"
       xlink:href="#linearGradient3189"
       gradientUnits="userSpaceOnUse"
       gradientTransform="matrix(1.0030842,0,0,1.1242975,-181.80028,-43.032542)" />
  </defs>
  <g
     transform="matrix(0.6068776,0.7947953,-0.7947953,0.6068776,141.20431,147.65009)"
     id="g3969">
    <path
       d="m -131.58673,-24.082122 -1.40942,-10.2154 27.54013,14.84195 -27.54013,14.8419495 1.40942,-9.9193095 c -17.40474,0 -31.53452,14.12977955 -31.53452,31.53451 0,17.40474 14.12978,31.53452 31.53452,31.53452 17.40474,0 31.53453,-14.12977 31.53452,-31.53452 0,-8.7023605 -3.54505,-16.57339045 -9.25308,-22.2814305 l 6.77325,-6.7732595 c 6.709713,5.7639795 12.029013,17.7163495 12.029013,29.05469 1e-5,22.67669 -18.407013,41.083707 -41.083703,41.083707 -22.67668,0 -41.0837,-18.407017 -41.0837,-41.083707 0,-22.6766805 18.40702,-41.0837 41.0837,-41.0837 z"
       inkscape:connector-curvature="0"
       id="path3205"
       style="fill:none;stroke:#000000;stroke-width:5.23870182;stroke-linecap:round;stroke-linejoin:round;stroke-miterlimit:4;stroke-opacity:1;stroke-dasharray:none;stroke-dashoffset:0" />
    <path
       d="m -131.58673,-24.082122 -1.40942,-10.2154 27.54013,14.84195 -27.54013,14.8419495 1.40942,-9.9193095 c -17.40474,0 -31.53452,14.12977955 -31.53452,31.53451 0,17.40474 14.12978,31.53452 31.53452,31.53452 17.40474,0 31.53452,-14.12977 31.53451,-31.53452 0,-8.7023605 -3.54504,-16.57339045 -9.25308,-22.2814305 l 6.77326,-6.7732495 c 6.709713,5.7639695 12.029013,17.7163395 12.029013,29.05468 0,22.67669 -18.407023,41.083707 -41.083703,41.083707 -22.67668,0 -41.0837,-18.407017 -41.0837,-41.083707 0,-22.6766805 18.40701,-41.0837 41.0837,-41.0837 z"
       inkscape:connector-curvature="0"
       id="path3176"
       style="fill:url(#radialGradient3973);fill-opacity:1;fill-rule:evenodd;stroke:url(#radialGradient3975);stroke-width:2.36879039;stroke-linecap:round;stroke-linejoin:round;stroke-miterlimit:4;stroke-opacity:1;stroke-dashoffset:0" />
  </g>
  <rect
     width="58.389416"
     height="44.161625"
     rx="22.080812"
     ry="22.080812"
     x="2.2019444"
     y="1.9614892"
     id="rect4688-2"
     style="fill:none;stroke:#000000;stroke-width:2.59277892;stroke-linecap:round;stroke-linejoin:round;stroke-miterlimit:4;stroke-opacity:1;stroke-dasharray:5.18555798, 2.59277899;stroke-dashoffset:0" />
  <g
     transform="matrix(1.037196,0,0,1.037196,5.7071423,-25.220603)"
     id="g3449">
    <path
       d="m 42.504527,49.373914 c 0.0015,8.26111 -6.69509,14.958833 -14.9562,14.958833 -8.261119,0 -14.957669,-6.697723 -14.95621,-14.958833 -0.0015,-8.261108 6.695091,-14.958829 14.95621,-14.958829 8.26111,0 14.957651,6.697721 14.9562,14.958829 l 0,0 z"
       inkscape:connector-curvature="0"
       id="use2673"
       style="fill:#c6c8c5;fill-opacity:1;fill-rule:evenodd;stroke:none" />
    <g
       transform="matrix(1.3640315,0,0,1.3640315,-151.23644,1.217585)"
       id="use2652">
      <path
         d="m 139.687,32.752702 c 10e-4,6.056392 -4.90831,10.96663 -10.9647,10.96663 -6.0564,0 -10.96578,-4.910238 -10.96471,-10.96663 -10e-4,-6.056391 4.90831,-10.96663 10.96471,-10.96663 6.05639,0 10.96577,4.910239 10.9647,10.96663 l 0,0 z"
         inkscape:connector-curvature="0"
         id="path3427"
         style="fill:#0000ff;fill-opacity:1;fill-rule:evenodd;stroke:#000000;stroke-width:0.33620161px;stroke-linecap:butt;stroke-linejoin:miter;stroke-opacity:1" />
      <path
         d="m 136.58921,40.465176 c -4.28176,4.283266 -11.22528,4.283874 -15.5078,0.0014 -4.28251,-4.282515 -4.28191,-11.226032 10e-4,-15.507798 4.28177,-4.283266 11.22528,-4.283874 15.5078,-0.0014 4.28251,4.282517 4.28191,11.226034 -0.001,15.507799 l 0,0 z"
         inkscape:connector-curvature="0"
         id="path3429"
         style="opacity:0.71739131;fill:url(#linearGradient3433);fill-opacity:1;fill-rule:evenodd;stroke:none" />
      <path
         d="m 130.91772,28.55551 c 5.9e-4,3.399307 -2.75493,6.155305 -6.15423,6.155305 -3.39931,0 -6.15482,-2.755998 -6.15423,-6.155305 -5.9e-4,-3.399307 2.75492,-6.155305 6.15423,-6.155305 3.3993,0 6.15482,2.755998 6.15423,6.155305 l 0,0 z"
         inkscape:connector-curvature="0"
         id="path3431"
         style="fill:url(#radialGradient3435);fill-opacity:1;fill-rule:evenodd;stroke:none" />
    </g>
  </g>
  <g
     transform="matrix(1.037196,0,0,1.037196,49.619318,30.268419)"
     id="g3897">
    <path
       d="m 42.504527,49.373914 c 0.0015,8.26111 -6.69509,14.958833 -14.9562,14.958833 -8.261119,0 -14.957669,-6.697723 -14.95621,-14.958833 -0.0015,-8.261108 6.695091,-14.958829 14.95621,-14.958829 8.26111,0 14.957651,6.697721 14.9562,14.958829 l 0,0 z"
       inkscape:connector-curvature="0"
       id="path3899"
       style="fill:#c6c8c5;fill-opacity:1;fill-rule:evenodd;stroke:none" />
    <g
       transform="matrix(1.3640315,0,0,1.3640315,-151.23644,1.217585)"
       id="g3901">
      <path
         d="m 139.687,32.752702 c 10e-4,6.056392 -4.90831,10.96663 -10.9647,10.96663 -6.0564,0 -10.96578,-4.910238 -10.96471,-10.96663 -10e-4,-6.056391 4.90831,-10.96663 10.96471,-10.96663 6.05639,0 10.96577,4.910239 10.9647,10.96663 l 0,0 z"
         inkscape:connector-curvature="0"
         id="path3903"
         style="fill:#0000ff;fill-opacity:1;fill-rule:evenodd;stroke:#000000;stroke-width:0.33620161px;stroke-linecap:butt;stroke-linejoin:miter;stroke-opacity:1" />
      <path
         d="m 136.58921,40.465176 c -4.28176,4.283266 -11.22528,4.283874 -15.5078,0.0014 -4.28251,-4.282515 -4.28191,-11.226032 10e-4,-15.507798 4.28177,-4.283266 11.22528,-4.283874 15.5078,-0.0014 4.28251,4.282517 4.28191,11.226034 -0.001,15.507799 l 0,0 z"
         inkscape:connector-curvature="0"
         id="path3905"
         style="opacity:0.71739131;fill:url(#linearGradient3909);fill-opacity:1;fill-rule:evenodd;stroke:none" />
      <path
         d="m 130.91772,28.55551 c 5.9e-4,3.399307 -2.75493,6.155305 -6.15423,6.155305 -3.39931,0 -6.15482,-2.755998 -6.15423,-6.155305 -5.9e-4,-3.399307 2.75492,-6.155305 6.15423,-6.155305 3.3993,0 6.15482,2.755998 6.15423,6.155305 l 0,0 z"
         inkscape:connector-curvature="0"
         id="path3907"
         style="fill:url(#radialGradient3911);fill-opacity:1;fill-rule:evenodd;stroke:none" />
    </g>
  </g>
</svg>

<?xml version="1.0" encoding="UTF-8" standalone="no"?>
<!-- Created with Inkscape (http://www.inkscape.org/) -->
<svg
   xmlns:svg="http://www.w3.org/2000/svg"
   xmlns="http://www.w3.org/2000/svg"
   xmlns:xlink="http://www.w3.org/1999/xlink"
   version="1.0"
   width="100"
   height="100"
   id="svg2">
  <defs
     id="defs4">
    <linearGradient
       x1="25.398125"
       y1="63.345894"
       x2="90.625114"
       y2="63.345894"
       id="linearGradient3433"
       xlink:href="#linearGradient3384-2"
       gradientUnits="userSpaceOnUse"
       gradientTransform="matrix(0.2377304,0.2377304,-0.2377304,0.2377304,130.10411,3.861581)" />
    <linearGradient
       id="linearGradient3384-2">
      <stop
         id="stop3386-3"
         style="stop-color:#0000ff;stop-opacity:1"
         offset="0" />
      <stop
         id="stop3388-7"
         style="stop-color:#000000;stop-opacity:1"
         offset="1" />
    </linearGradient>
    <radialGradient
       cx="58.01162"
       cy="63.345894"
       r="33.113495"
       fx="58.01162"
       fy="63.345894"
       id="radialGradient3435"
       xlink:href="#linearGradient3252-5"
       gradientUnits="userSpaceOnUse"
       gradientTransform="matrix(0.1887019,0,0,0.1887019,113.81659,16.602022)" />
    <linearGradient
       id="linearGradient3252-5">
      <stop
         id="stop3254-9"
         style="stop-color:#ffffff;stop-opacity:1"
         offset="0" />
      <stop
         id="stop3256-2"
         style="stop-color:#7f7fff;stop-opacity:0"
         offset="1" />
    </linearGradient>
    <linearGradient
       x1="25.398125"
       y1="63.345894"
       x2="90.625114"
       y2="63.345894"
       id="linearGradient3909"
       xlink:href="#linearGradient3384-2"
       gradientUnits="userSpaceOnUse"
       gradientTransform="matrix(0.2377304,0.2377304,-0.2377304,0.2377304,130.10411,3.861581)" />
    <radialGradient
       cx="58.01162"
       cy="63.345894"
       r="33.113495"
       fx="58.01162"
       fy="63.345894"
       id="radialGradient3911"
       xlink:href="#linearGradient3252-5"
       gradientUnits="userSpaceOnUse"
       gradientTransform="matrix(0.1887019,0,0,0.1887019,113.81659,16.602022)" />
    <linearGradient
       id="linearGradient3197">
      <stop
         id="stop3199"
         style="stop-color:#e4e1e1;stop-opacity:1"
         offset="0" />
      <stop
         id="stop3201"
         style="stop-color:#e4af00;stop-opacity:1"
         offset="1" />
    </linearGradient>
    <linearGradient
       id="linearGradient3189">
      <stop
         id="stop3191"
         style="stop-color:#000000;stop-opacity:1"
         offset="0" />
      <stop
         id="stop3193"
         style="stop-color:#000000;stop-opacity:0"
         offset="1" />
    </linearGradient>
    <radialGradient
       cx="50.059151"
       cy="48.853989"
       r="42.138134"
       fx="50.059151"
       fy="48.853989"
       id="radialGradient3973"
       xlink:href="#linearGradient3197"
       gradientUnits="userSpaceOnUse"
       gradientTransform="matrix(1.0030842,0,0,1.1242975,-181.80028,-43.032542)" />
    <radialGradient
       cx="50.059151"
       cy="48.853989"
       r="42.138134"
       fx="50.059151"
       fy="48.853989"
       id="radialGradient3975"
       xlink:href="#linearGradient3189"
       gradientUnits="userSpaceOnUse"
       gradientTransform="matrix(1.0030842,0,0,1.1242975,-181.80028,-43.032542)" />
  </defs>
  <g
     transform="matrix(0.6068776,0.7947953,-0.7947953,0.6068776,141.20431,147.65009)"
     id="g3969">
    <path
       d="M -131.58673,-24.082122 L -132.99615,-34.297522 L -105.45602,-19.455572 L -132.99615,-4.6136225 L -131.58673,-14.532932 C -148.99147,-14.532932 -163.12125,-0.40315245 -163.12125,17.001578 C -163.12125,34.406318 -148.99147,48.536098 -131.58673,48.536098 C -114.18199,48.536098 -100.0522,34.406328 -100.05221,17.001578 C -100.05221,8.2992175 -103.59726,0.42818755 -109.30529,-5.2798525 L -102.53204,-12.053112 C -95.822327,-6.2891325 -90.503027,5.6632375 -90.503027,17.001578 C -90.503017,39.678268 -108.91004,58.085285 -131.58673,58.085285 C -154.26341,58.085285 -172.67043,39.678268 -172.67043,17.001578 C -172.67043,-5.6751025 -154.26341,-24.082122 -131.58673,-24.082122 L -131.58673,-24.082122 z"
       id="path3205"
       style="fill:none;stroke:#000000;stroke-width:5.23870182;stroke-linecap:round;stroke-linejoin:round;stroke-miterlimit:4;stroke-dasharray:none;stroke-dashoffset:0;stroke-opacity:1" />
    <path
       d="M -131.58673,-24.082122 L -132.99615,-34.297522 L -105.45602,-19.455572 L -132.99615,-4.6136225 L -131.58673,-14.532932 C -148.99147,-14.532932 -163.12125,-0.40315245 -163.12125,17.001578 C -163.12125,34.406318 -148.99147,48.536098 -131.58673,48.536098 C -114.18199,48.536098 -100.05221,34.406328 -100.05222,17.001578 C -100.05222,8.2992175 -103.59726,0.42818755 -109.3053,-5.2798525 L -102.53204,-12.053102 C -95.822327,-6.2891325 -90.503027,5.6632375 -90.503027,17.001578 C -90.503027,39.678268 -108.91005,58.085285 -131.58673,58.085285 C -154.26341,58.085285 -172.67043,39.678268 -172.67043,17.001578 C -172.67043,-5.6751025 -154.26342,-24.082122 -131.58673,-24.082122 L -131.58673,-24.082122 z"
       id="path3176"
       style="fill:url(#radialGradient3973);fill-opacity:1;fill-rule:evenodd;stroke:url(#radialGradient3975);stroke-width:2.36879039;stroke-linecap:round;stroke-linejoin:round;stroke-miterlimit:4;stroke-dashoffset:0;stroke-opacity:1" />
  </g>
  <rect
     width="58.389416"
     height="44.161625"
     rx="22.080812"
     ry="22.080812"
     x="2.2019444"
     y="1.9614892"
     id="rect4688-2"
     style="fill:none;stroke:#000000;stroke-width:2.59277892;stroke-linecap:round;stroke-linejoin:round;stroke-miterlimit:4;stroke-dasharray:5.18555798, 2.59277899;stroke-dashoffset:0;stroke-opacity:1" />
  <g
     transform="matrix(1.037196,0,0,1.037196,5.7071423,-25.220603)"
     id="g3449">
    <path
       d="M 42.504527,49.373914 C 42.506027,57.635024 35.809437,64.332747 27.548327,64.332747 C 19.287208,64.332747 12.590658,57.635024 12.592117,49.373914 C 12.590617,41.112806 19.287208,34.415085 27.548327,34.415085 C 35.809437,34.415085 42.505978,41.112806 42.504527,49.373914 L 42.504527,49.373914 z"
       id="use2673"
       style="fill:#c6c8c5;fill-opacity:1;fill-rule:evenodd;stroke:none" />
    <g
       transform="matrix(1.3640315,0,0,1.3640315,-151.23644,1.217585)"
       id="use2652">
      <path
         d="M 139.687,32.752702 C 139.688,38.809094 134.77869,43.719332 128.7223,43.719332 C 122.6659,43.719332 117.75652,38.809094 117.75759,32.752702 C 117.75659,26.696311 122.6659,21.786072 128.7223,21.786072 C 134.77869,21.786072 139.68807,26.696311 139.687,32.752702 L 139.687,32.752702 z"
         id="path3427"
         style="fill:#0000ff;fill-opacity:1;fill-rule:evenodd;stroke:#000000;stroke-width:0.33620161px;stroke-linecap:butt;stroke-linejoin:miter;stroke-opacity:1" />
      <path
         d="M 136.58921,40.465176 C 132.30745,44.748442 125.36393,44.74905 121.08141,40.466576 C 116.7989,36.184061 116.7995,29.240544 121.08241,24.958778 C 125.36418,20.675512 132.30769,20.674904 136.59021,24.957378 C 140.87272,29.239895 140.87212,36.183412 136.58921,40.465177 L 136.58921,40.465177 L 136.58921,40.465176 z"
         id="path3429"
         style="opacity:0.71739131;fill:url(#linearGradient3433);fill-opacity:1;fill-rule:evenodd;stroke:none" />
      <path
         d="M 130.91772,28.55551 C 130.91831,31.954817 128.16279,34.710815 124.76349,34.710815 C 121.36418,34.710815 118.60867,31.954817 118.60926,28.55551 C 118.60867,25.156203 121.36418,22.400205 124.76349,22.400205 C 128.16279,22.400205 130.91831,25.156203 130.91772,28.55551 L 130.91772,28.55551 z"
         id="path3431"
         style="fill:url(#radialGradient3435);fill-opacity:1;fill-rule:evenodd;stroke:none" />
    </g>
  </g>
  <g
     transform="matrix(1.037196,0,0,1.037196,49.619318,30.268419)"
     id="g3897">
    <path
       d="M 42.504527,49.373914 C 42.506027,57.635024 35.809437,64.332747 27.548327,64.332747 C 19.287208,64.332747 12.590658,57.635024 12.592117,49.373914 C 12.590617,41.112806 19.287208,34.415085 27.548327,34.415085 C 35.809437,34.415085 42.505978,41.112806 42.504527,49.373914 L 42.504527,49.373914 z"
       id="path3899"
       style="fill:#c6c8c5;fill-opacity:1;fill-rule:evenodd;stroke:none" />
    <g
       transform="matrix(1.3640315,0,0,1.3640315,-151.23644,1.217585)"
       id="g3901">
      <path
         d="M 139.687,32.752702 C 139.688,38.809094 134.77869,43.719332 128.7223,43.719332 C 122.6659,43.719332 117.75652,38.809094 117.75759,32.752702 C 117.75659,26.696311 122.6659,21.786072 128.7223,21.786072 C 134.77869,21.786072 139.68807,26.696311 139.687,32.752702 L 139.687,32.752702 z"
         id="path3903"
         style="fill:#0000ff;fill-opacity:1;fill-rule:evenodd;stroke:#000000;stroke-width:0.33620161px;stroke-linecap:butt;stroke-linejoin:miter;stroke-opacity:1" />
      <path
         d="M 136.58921,40.465176 C 132.30745,44.748442 125.36393,44.74905 121.08141,40.466576 C 116.7989,36.184061 116.7995,29.240544 121.08241,24.958778 C 125.36418,20.675512 132.30769,20.674904 136.59021,24.957378 C 140.87272,29.239895 140.87212,36.183412 136.58921,40.465177 L 136.58921,40.465177 L 136.58921,40.465176 z"
         id="path3905"
         style="opacity:0.71739131;fill:url(#linearGradient3909);fill-opacity:1;fill-rule:evenodd;stroke:none" />
      <path
         d="M 130.91772,28.55551 C 130.91831,31.954817 128.16279,34.710815 124.76349,34.710815 C 121.36418,34.710815 118.60867,31.954817 118.60926,28.55551 C 118.60867,25.156203 121.36418,22.400205 124.76349,22.400205 C 128.16279,22.400205 130.91831,25.156203 130.91772,28.55551 L 130.91772,28.55551 z"
         id="path3907"
         style="fill:url(#radialGradient3911);fill-opacity:1;fill-rule:evenodd;stroke:none" />
    </g>
  </g>
</svg>
